icons/circle/48/fedy.svg

<svg xmlns="http://www.w3.org/2000/svg" viewBox="0 0 48 48">
 <defs>
  <linearGradient id="linearGradient3764" x1="1" x2="47" gradientUnits="userSpaceOnUse" gradientTransform="matrix(0,-1,1,0,-1.5e-6,47.999998)">
   <stop style="stop-color:#e4e4e4;stop-opacity:1"/>
   <stop offset="1" style="stop-color:#eee;stop-opacity:1"/>
  </linearGradient>
 </defs>
 <g>
  <path d="m 36.31 5 c 5.859 4.062 9.688 10.831 9.688 18.5 c 0 12.426 -10.07 22.5 -22.5 22.5 c -7.669 0 -14.438 -3.828 -18.5 -9.688 c 1.037 1.822 2.306 3.499 3.781 4.969 c 4.085 3.712 9.514 5.969 15.469 5.969 c 12.703 0 23 -10.298 23 -23 c 0 -5.954 -2.256 -11.384 -5.969 -15.469 c -1.469 -1.475 -3.147 -2.744 -4.969 -3.781 z m 4.969 3.781 c 3.854 4.113 6.219 9.637 6.219 15.719 c 0 12.703 -10.297 23 -23 23 c -6.081 0 -11.606 -2.364 -15.719 -6.219 c 4.16 4.144 9.883 6.719 16.219 6.719 c 12.703 0 23 -10.298 23 -23 c 0 -6.335 -2.575 -12.06 -6.719 -16.219 z" style="opacity:0.05"/>
  <path d="m 41.28 8.781 c 3.712 4.085 5.969 9.514 5.969 15.469 c 0 12.703 -10.297 23 -23 23 c -5.954 0 -11.384 -2.256 -15.469 -5.969 c 4.113 3.854 9.637 6.219 15.719 6.219 c 12.703 0 23 -10.298 23 -23 c 0 -6.081 -2.364 -11.606 -6.219 -15.719 z" style="opacity:0.1"/>
  <path d="m 31.25 2.375 c 8.615 3.154 14.75 11.417 14.75 21.13 c 0 12.426 -10.07 22.5 -22.5 22.5 c -9.708 0 -17.971 -6.135 -21.12 -14.75 a 23 23 0 0 0 44.875 -7 a 23 23 0 0 0 -16 -21.875 z" style="opacity:0.2"/>
 </g>
 <g>
  <path d="m 24 1 c 12.703 0 23 10.297 23 23 c 0 12.703 -10.297 23 -23 23 -12.703 0 -23 -10.297 -23 -23 0 -12.703 10.297 -23 23 -23 z" style="fill:url(#linearGradient3764);fill-opacity:1"/>
 </g>
 <g>
  <g>
   <g transform="translate(1,1)">
    <g style="opacity:0.1">
     <!-- color: #eeeeee -->
     <g>
      <path d="m 29.996 17 c -2.02 0 -3.841 0.761 -5.236 2 l -10.701 0 c -1.137 0 -2.059 0.922 -2.059 2.059 l 0 7.883 c 0 1.137 0.922 2.066 2.059 2.066 l 10.713 0 c 1.394 1.234 3.215 1.99 5.225 1.99 c 4.412 0 8 -3.591 8 -8 0 -4.408 -3.59 -8 -8 -8 z" transform="translate(-1,-1)" style="fill:#000"/>
      <path transform="translate(-1,-1)" d="m 29.996 17 c -2.02 0 -3.841 0.761 -5.236 2 l -10.701 0 c -1.137 0 -2.059 0.922 -2.059 2.059 l 0 7.883 c 0 1.137 0.922 2.066 2.059 2.066 l 10.713 0 c 1.394 1.234 3.215 1.99 5.225 1.99 c 4.412 0 8 -3.591 8 -8 0 -4.408 -3.59 -8 -8 -8 z" style="fill:#000"/>
     </g>
    </g>
   </g>
  </g>
 </g>
 <g>
  <g>
   <!-- color: #eeeeee -->
   <g>
    <path d="m 11,20.06 0,7.883 c 0,1.137 0.922,2.066 2.059,2.066 l 19.879,0 c 1.137,0 2.059,-0.93 2.059,-2.066 l 0,-7.883 c 0,-1.137 -0.922,-2.059 -2.059,-2.059 l -19.879,0 C 11.922,18.001 11,18.923 11,20.06 m 0,0" style="fill:#216fab;fill-opacity:1;stroke:none;fill-rule:evenodd"/>
    <path d="m 328.31 157.22 c 0 -3.806 -3.086 -6.891 -6.893 -6.891 -3.81 0 -6.893 3.086 -6.893 6.891 0 3.806 3.083 6.891 6.893 6.891 3.807 0 6.893 -3.086 6.893 -6.891 m 0 0" transform="matrix(-1.0467,0,0,1.04698,365.42511,-140.60607)" style="stroke-opacity:1;fill:#eaeaea;stroke-miterlimit:4;fill-opacity:1;stroke:#ccc;fill-rule:nonzero;stroke-linecap:round;stroke-linejoin:miter;stroke-width:1.5"/>
   </g>
  </g>
 </g>
 <g>
  <path d="m 40.03 7.531 c 3.712 4.084 5.969 9.514 5.969 15.469 0 12.703 -10.297 23 -23 23 c -5.954 0 -11.384 -2.256 -15.469 -5.969 4.178 4.291 10.01 6.969 16.469 6.969 c 12.703 0 23 -10.298 23 -23 0 -6.462 -2.677 -12.291 -6.969 -16.469 z" style="opacity:0.1"/>
 </g>
</svg>

<svg xmlns="http://www.w3.org/2000/svg" viewBox="0 0 48 48">
  <defs>
    <linearGradient id="a" x1="1" x2="47" gradientUnits="userSpaceOnUse" gradientTransform="rotate(-90 24 24)">
      <stop stop-color="#e4e4e4"/>
      <stop offset="1" stop-color="#eee"/>
    </linearGradient>
  </defs>
  <path d="M36.31 5c5.859 4.062 9.688 10.831 9.688 18.5 0 12.426-10.07 22.5-22.5 22.5-7.669 0-14.438-3.828-18.5-9.688a23.24 23.24 0 0 0 3.781 4.969 22.923 22.923 0 0 0 15.469 5.969c12.703 0 23-10.298 23-23a22.92 22.92 0 0 0-5.969-15.469A23.216 23.216 0 0 0 36.31 5zm4.969 3.781A22.911 22.911 0 0 1 47.498 24.5c0 12.703-10.297 23-23 23a22.909 22.909 0 0 1-15.719-6.219C12.939 45.425 18.662 48 24.998 48c12.703 0 23-10.298 23-23 0-6.335-2.575-12.06-6.719-16.219z" opacity=".05"/>
  <path d="M41.28 8.781a22.923 22.923 0 0 1 5.969 15.469c0 12.703-10.297 23-23 23A22.92 22.92 0 0 1 8.78 41.281 22.911 22.911 0 0 0 24.499 47.5c12.703 0 23-10.298 23-23A22.909 22.909 0 0 0 41.28 8.781z" opacity=".1"/>
  <path d="M31.25 2.375C39.865 5.529 46 13.792 46 23.505c0 12.426-10.07 22.5-22.5 22.5-9.708 0-17.971-6.135-21.12-14.75a23 23 0 0 0 44.875-7 23 23 0 0 0-16-21.875z" opacity=".2"/>
  <path d="M24 1c12.703 0 23 10.297 23 23S36.703 47 24 47 1 36.703 1 24 11.297 1 24 1z" fill="url(#a)"/>
  <g opacity=".1">
    <path d="M29.996 17c-2.02 0-3.841.761-5.236 2H14.059A2.06 2.06 0 0 0 12 21.059v7.883c0 1.137.922 2.066 2.059 2.066h10.713a7.847 7.847 0 0 0 5.225 1.99c4.412 0 8-3.591 8-8 0-4.408-3.59-8-8-8z"/>
    <path d="M29.996 17c-2.02 0-3.841.761-5.236 2H14.059A2.06 2.06 0 0 0 12 21.059v7.883c0 1.137.922 2.066 2.059 2.066h10.713a7.847 7.847 0 0 0 5.225 1.99c4.412 0 8-3.591 8-8 0-4.408-3.59-8-8-8z"/>
  </g>
  <g>
    <path d="M11 20.06v7.883c0 1.137.922 2.066 2.059 2.066h19.879c1.137 0 2.059-.93 2.059-2.066V20.06a2.06 2.06 0 0 0-2.059-2.059H13.059A2.06 2.06 0 0 0 11 20.06m0 0" fill="#216fab" fill-rule="evenodd"/>
    <path d="M328.31 157.22a6.892 6.892 0 0 0-6.893-6.891 6.89 6.89 0 0 0-6.893 6.891 6.89 6.89 0 0 0 6.893 6.891 6.892 6.892 0 0 0 6.893-6.891m0 0" transform="matrix(-1.0467 0 0 1.04698 365.425 -140.606)" fill="#eaeaea" stroke="#ccc" stroke-linecap="round" stroke-width="1.5"/>
  </g>
  <g>
    <path d="M40.03 7.531A22.922 22.922 0 0 1 45.999 23c0 12.703-10.297 23-23 23A22.92 22.92 0 0 1 7.53 40.031C11.708 44.322 17.54 47 23.999 47c12.703 0 23-10.298 23-23 0-6.462-2.677-12.291-6.969-16.469z" opacity=".1"/>
  </g>
</svg>
